!!! OTL: Berkowitz402
!!! Chapter: 1
!!! Section: III
!!! Page: 99
!!! Mode: 
!!! Encoder: DJB
**kern
*staff1
*I"Piano
=1-
*clefF4
*k[f#c#]
*b:
*M3/4
4r
4r
8r
8F#\
=2
8d\L
16d\L
16d\JJ
8d\L
8c#\J
8B\L
8d\J
=3
4c#\
4A\
4F#\
=4
8B\L
16B\L
16B\JJ
8B\L
8A\J
8G\L
8B\J
=5
4A\
4F#\
4D\
=6
8G\L
16G\L
16G\JJ
8G\L
8F#\J
8E\L
8G\J
=7
4F#\
4D\
4BB/
=8
!!linebreak:original
16C#\LL
16D\
16E\
16D\JJ
8C#/L
8BB/J
8AA#/L
8BB/J
=9
4C#/
4r
8r
8F#\
=10
8d\L
16d\L
16d\JJ
8d\L
8c#\J
12B\L
12c#\
12d\J
=11
8.c#\L
16c#\Jk
4A\
16F#\LL
16G\
16A\
16G\JJ
=12
8B\L
16B\L
16B\JJ
8B\L
8A\J
16G\LL
16A\
16B\
16G\JJ
=13
!!linebreak:original
12A\L
12A\
12A\J
8F#\L
[8D\J
12D\L]
12E\
12F#\J
=14
8G\L
16G\L
16G\JJ
16F#\LL
16E\
16D\
16E\JJ
16F#\LL
16D\
16E\
16F#\JJ
=15
8.E/L
16AA/Jk
4.A\
8G\
=16
8F#\L
16F#\L
16F#\JJ
8F#/L
8FF#/J
8.D/L
16C#/Jk
=17
2BB/
4r
==
*-
